Adwaita++/actions/16/fcitx-rime-deploy.svg

<svg height="16" width="16" xmlns="http://www.w3.org/2000/svg">
  <path d="m8 0c-4.4183 0-8 3.5817-8 8 0 4.418 3.5817 8 8 8 4.418 0 8-3.582 8-8 0-4.4183-3.582-8-8-8zm-1 2 3 2-3 2v-.8262c-1.1979.4235-1.999 1.5557-2 2.8262.0012 1.0283.529 1.9843 1.3984 2.533l-.9531.635c-.2937.196-.4403.509-.4433.822-1.2571-.942-1.9985-2.4193-2.002-3.99.0003-2.3758 1.6722-4.4233 4-4.8984zm3.998 2.0098c1.257.9418 1.998 2.4195 2.002 3.9902 0 2.376-1.672 4.423-4 4.898v1.102l-3-2 3-2v.826c1.198-.423 1.999-1.5555 2-2.826-.001-1.0283-.529-1.9843-1.3984-2.5332l.9534-.6348c.293-.1958.44-.5085.443-.8222z" fill="#474747"/>
</svg>

<svg xmlns="http://www.w3.org/2000/svg" width="16" height="16" version="1.1">
 <defs>
  <style id="current-color-scheme" type="text/css">
   .ColorScheme-Text { color:#474747; } .ColorScheme-Highlight { color:#4285f4; }
  </style>
 </defs>
 <path style="fill:currentColor" class="ColorScheme-Text" d="M 8,0 C 3.5817,0 0,3.5817 0,8 0,12.418 3.5817,16 8,16 12.418,16 16,12.418 16,8 16,3.5817 12.418,0 8,0 Z M 7,2 10,4 7,6 V 5.1738 C 5.8021,5.5973 5.001,6.7295 5,8 5.0012,9.0283 5.529,9.9843 6.3984,10.533 L 5.4453,11.168 C 5.1516,11.364 5.005,11.677 5.002,11.99 3.7449,11.048 3.0035,9.5707 3,8 3.0003,5.6242 4.6722,3.5767 7,3.1016 Z M 10.998,4.0098 C 12.255,4.9516 12.996,6.4293 13,8 13,10.376 11.328,12.423 9,12.898 V 14 L 6,12 9,10 V 10.826 C 10.198,10.403 10.999,9.2705 11,8 10.999,6.9717 10.471,6.0157 9.6016,5.4668 L 10.555,4.832 C 10.848,4.6362 10.995,4.3235 10.998,4.0098 Z"/>
</svg>
